lib/logo_tmp/nrk-logo-nrk-p1-pluss-title-below.svg

<svg width="35" height="41" viewBox="0 0 35 41" fill="none" xmlns="http://www.w3.org/2000/svg">
<path d="M6.10352e-05 17.9967V5.99781H3.93725V17.9967H6.10352e-05ZM9.29387 7.9075L11.5581 17.9967H7.24923L4.54555 5.99781H6.96224C7.51641 5.99062 8.05412 6.18597 8.47456 6.54711C8.89568 6.8931 9.18501 7.37342 9.29387 7.9075ZM12.1496 17.9967V5.99781H16.0868V17.9967H12.1496ZM19.0605 10.5608C18.6363 10.565 18.2188 10.4539 17.8526 10.2397C17.4913 10.0308 17.1912 9.73068 16.9823 9.36932C16.7678 9.00305 16.6568 8.58548 16.661 8.16104C16.6562 7.73918 16.7673 7.3241 16.9823 6.96115C17.1934 6.60371 17.4932 6.30681 17.8526 6.09924C18.2189 5.88522 18.6363 5.77423 19.0605 5.7781C19.4823 5.77356 19.8972 5.88465 20.2603 6.09924C20.6161 6.30863 20.9127 6.60528 21.1221 6.96115C21.3369 7.3242 21.448 7.73921 21.4434 8.16104C21.4473 8.58545 21.3363 9.00295 21.1221 9.36932C20.9149 9.72909 20.618 10.029 20.2603 10.2397C19.8972 10.4547 19.4819 10.5658 19.06 10.5608H19.0605ZM22.0517 17.9967V5.99781H25.9892V17.9967H22.0517ZM30.9738 12.555C30.9849 12.5666 31.0693 12.7046 31.2272 12.969C31.3851 13.2334 31.5907 13.5714 31.844 13.983C32.0975 14.3944 32.3649 14.831 32.6464 15.2927C32.9278 15.7545 33.1927 16.1911 33.4409 16.6025C33.6882 17.0139 33.9698 17.4786 34.2858 17.9967H29.9599C29.6893 17.5573 29.4442 17.1602 29.2245 16.8053C29.0049 16.4504 28.7714 16.0673 28.5239 15.6561C28.2759 15.2452 28.0307 14.8453 27.7883 14.4562C27.5459 14.0671 27.3376 13.7263 27.1633 13.4338C26.9883 13.141 26.8671 12.9438 26.7997 12.8423C26.6326 12.5902 26.5337 12.299 26.5127 11.9973C26.5295 11.7077 26.6227 11.4277 26.7828 11.1858C26.8504 11.0732 26.9743 10.8731 27.1546 10.5858C27.3348 10.2986 27.5461 9.95777 27.7883 9.56344C28.0305 9.16911 28.2757 8.76632 28.5239 8.35509C28.7721 7.94386 29.0056 7.55796 29.2245 7.19743C29.4446 6.83727 29.6897 6.43731 29.9599 5.99753H34.2858L30.9397 11.4562C30.8361 11.6183 30.7778 11.8051 30.7707 11.9973C30.7818 12.199 30.8523 12.393 30.9732 12.555H30.9738Z" fill="white"/>
<path d="M8.13475 24.5551C7.92731 24.2346 7.66099 23.9565 7.34996 23.7355C7.00328 23.4924 6.61814 23.3096 6.21075 23.1947C5.71624 23.058 5.2048 22.9927 4.69185 23.0007H0V34.9995H1.7721V30.69H4.82686C5.51634 30.7006 6.19675 30.5317 6.80148 30.1999C7.38104 29.8786 7.86233 29.4054 8.19381 28.8311C8.54913 28.1973 8.72699 27.4792 8.70858 26.7527C8.71006 26.3599 8.66474 25.9683 8.57357 25.5863C8.48582 25.2205 8.33748 24.8719 8.13475 24.5551ZM6.56517 28.197C6.33826 28.5534 6.00447 28.8286 5.61165 28.9832C5.13477 29.1637 4.62741 29.2498 4.11775 29.2366H1.7721V24.4709H4.35433C4.84756 24.4522 5.33842 24.5476 5.78883 24.7498C6.14712 24.9232 6.44005 25.2077 6.62423 25.561C6.81928 25.9573 6.91486 26.3952 6.9027 26.8369C6.92204 27.3132 6.80494 27.7852 6.56517 28.197Z" fill="white"/>
<path d="M12.3115 23.3978C12.0696 23.5273 11.8334 23.6484 11.6029 23.7608C11.3725 23.8733 11.139 23.986 10.9025 24.0988C10.6662 24.2115 10.4244 24.3132 10.1769 24.403C9.92933 24.4929 9.66463 24.5836 9.38335 24.6734L9.75494 26.1099C10.0925 26.0085 10.399 25.9071 10.6745 25.8057C10.9445 25.7069 11.2093 25.5941 11.4676 25.4677C11.7212 25.3441 11.9743 25.209 12.2271 25.0624L12.2355 25.0573V35H13.9905V23.0012H13.0794C12.8092 23.1358 12.5532 23.268 12.3115 23.3978Z" fill="white"/>
<path d="M20.8597 28.3407V24.9272H19.3745V28.3407H15.9485V29.6758H19.3745V33.0729H20.8597V29.6758H24.2857V28.3407H20.8597Z" fill="white"/>
</svg>

<svg xmlns="http://www.w3.org/2000/svg" viewBox="0 0 35 41"><path fill="#fff" d="M0 17.997v-12h3.937v12H0Zm9.294-10.09 2.264 10.09H7.25l-2.703-12h2.416a2.276 2.276 0 0 1 1.513.55c.42.346.71.826.819 1.36Zm2.856 10.09v-12h3.937v12H12.15Zm6.91-7.436a2.383 2.383 0 0 1-2.4-2.4 2.303 2.303 0 0 1 .322-1.2A2.411 2.411 0 0 1 20.26 6.1c.356.21.653.506.862.862.215.363.326.778.321 1.2a2.4 2.4 0 0 1-1.183 2.079 2.303 2.303 0 0 1-1.2.32Zm2.992 7.436v-12h3.937v12h-3.937Zm8.922-5.442c.01.012.095.15.253.414s.364.602.617 1.014a327.152 327.152 0 0 1 1.597 2.62c.247.41.529.876.845 1.394H29.96c-.27-.44-.516-.837-.736-1.192-.22-.355-.453-.738-.7-1.149-.248-.41-.493-.81-.736-1.2-.242-.389-.45-.73-.625-1.022-.175-.293-.296-.49-.363-.592a1.75 1.75 0 0 1-.287-.845c.016-.29.11-.57.27-.811.067-.113.191-.313.372-.6a182.106 182.106 0 0 0 1.37-2.23c.247-.412.48-.798.7-1.159l.735-1.2h4.326l-3.346 5.46a1.079 1.079 0 0 0-.17.54c.012.202.082.396.203.558ZM8.135 24.555a3.015 3.015 0 0 0-.785-.82 3.764 3.764 0 0 0-1.14-.54A5.385 5.385 0 0 0 4.693 23H0v11.998h1.772V30.69h3.055c.69.01 1.37-.158 1.974-.49a3.653 3.653 0 0 0 1.393-1.369 4.041 4.041 0 0 0 .515-2.078 4.944 4.944 0 0 0-.135-1.167 3.373 3.373 0 0 0-.44-1.03Zm-1.57 3.642c-.227.356-.56.632-.953.786-.477.18-.985.267-1.494.254H1.772V24.47h2.582c.494-.019.984.077 1.435.279.358.173.651.458.835.811.195.396.29.834.279 1.276.019.476-.098.948-.338 1.36ZM12.312 23.398c-.242.13-.479.25-.71.363-.23.112-.463.225-.7.338a8.113 8.113 0 0 1-.725.304c-.248.09-.512.18-.794.27l.372 1.437c.337-.101.644-.203.92-.304a8.27 8.27 0 0 0 .793-.338c.253-.124.506-.259.76-.406l.008-.005V35h1.755V23.001h-.912c-.27.135-.526.267-.768.397ZM20.86 28.34v-3.413h-1.485v3.414h-3.427v1.335h3.427v3.397h1.485v-3.397h3.426V28.34H20.86Z"/></svg>
